!!!OTL: Die aufgehende Sonne.
!!!OTL-incipit:IN MORGENROT GEKLEIDET
!!!ARE: Europa, Mitteleuropa, Deutschland
!!!SCT: F0335
!!!TXL: @@DE
!!!YEM: Copyright 1995, estate of Helmut Schaffrath.
**kern	**text
*ICvox	*
*clefG2	*
*M6/8	*
*k[]	*
*C:	*
!LO:TX:a:t=Mäßig.	!
!LO:TX:a:t=Vierſtimmig ohne, einſtimmig mit Begleitung.	!
!LO:TX:a:t=P:only the highest voice encoded:problem	!
{8e	1._Jn
=1	=1
4e	Morgenroth
8g	.
4g	.
8cc/	ge-
=2	=2
4.cc/	-klei-
4g}	-det,
{8g	be-
=3	=3
8.aL	-ginnt
16gJ	.
8cc/	ſie
4cc/	ih-
8a	-ren
=4	=4
[4.g	Lauf,
8g]	.
8r}	.
{8g	die
=5	=5
4g	ſchöne
8b/	.
4b/	Gottes-
8dd/	.
=6	=6
4.ff	-ſon-
4dd}	-ne,
{8dd	wie
=7	=7
4ee	herr-
8ee	-lich
8dd/L	geht
8eeJ	.
8dd/	ſie
=8	=8
[4.cc	auf!
8cc]	.
8r}	.
==	==
!!!AGN: Jugend - Lied, Tageszeiten, Morgen, religioes
!!!ONB: ESAC (Essen Associative Code) Database: FINK
!!!AMT: compound duple
!!!AIN: vox
!!!EED: Helmut Schaffrath
!!!EEV: 1.0
!!!GTL: Jugendlieder
!!Text: H. Ch. G. Demme
!!!source: Musikalischer Hausschatz der Deutschen. Eine Sammlung von über 1000 Liedern und Gesängen mit Singstimmen und Klavierbegleitung. Leipzig, Litterarisches Verlags-Haus.
!!!page: 199
!!!URL-scan: https://www.digitale-sammlungen.de/en/view/bsb11144622?page=196,197
!!!ENC: Anna Maria Matuszewska
!!!EEV: 2024/07/30
*-	*-